X:51
T:Coons The Corn Patch
R:jig
C:Bruce Osborne  --  Dec.1997
Z:abc by bosborne@kos.net
M:6/8
L:1/8
K:A
A/B/|cAA EAE|CEC A,CE|GBe gfe|gbg gfe|\
cAA EAE|CEC A,CE|GBe gfe|dcB A2:|
|:z|A,CE Ace|aga aec|EGB dcB|Acf ece|\
A,CE Ace|agf ece|gfe dcB|A2 -A3:|
